X:0772
T:The Reel of Tulloch.
M:C|
L:1/8
Q:1/2=112
I: (1) :| (2) || ||
Z:Jack Campin * www.campin.me.uk * 2009
K:A Mixolydian
B|c>A c/d/e c>AAB  |c>A c/d/e  d>BG<B|[1 c>A c/d/e c>Ace|B>E c/d/e  dBG :|
                                      [2 cA  c/d/e ccde |E2  c/d/e  dBG ||\
B|c>A c/d/e a>cAB  |c>A c/d/e (gG)GB |   c>A c/d/e a>cAB|c>A c/d/e (gG)GB|
  c>A c/d/e a>b.a.g|g>age      dBGg  |   afge      fdec |dBcA       dBG |]
<end>
<start>
